icon-svg/upstairs.svg

<svg xmlns="http://www.w3.org/2000/svg" viewBox="0 0 24 24"><path fill="#44739e" d="m6.259 7.197.988-.573L4.29 5.338l-.118 3.068 1.072-.621 2.308 2.97L2 14.492l.872 1.032 6.598-4.463Zm7.962-3.185L12.2 2.997 7.383 5.99l2.048 1.236ZM10.53 8.406l4.884-3.279-1.012-.507L9.59 7.866Zm6.12 4.19 5.225-3.597.124.064-6.286-3.284-4.986 3.315Zm-9.243 2.245-.521-.319M22 9.063l-5.358 3.705-6.14-3.642.001-.017-.032-.014.375-.243 4.704-3.158-.034-.018.021-.487-5.015 3.384-1.117-.65v-.014l-.056-.034.114-.083 4.858-3.26.021-.46L9.424 7.39 7.256 6.044l.104.644-.003-.001.003.004.002.013.024.014 1.05 1.143.003.014.023.014 1.062 1.154.004.015.023.014 1.456 1.583-.394.22 4.926 2.999.922-.588-.023-.014-4.923-2.873.092-.061.01-.008 4.961 2.849.132.071-.14.093-.006.004-1.01.69-5.059-3.097.036.396 4.994 3.109.135.079-.149.108-.006-.004-.995.64-5.161-3.158.041.452 5.053 3.145.135.079-.025.018.001.004-.052.033-.073.053-.005-.003-.978.628-5.304-3.247.468.287-.468-.287.044.492 5.064 3.151.135.079h-.001l.106.066.002.028-1.177.757-4.908-3.004-.521-.319.046.516 5.333 3.301.001.001.093.057v.003l.008.005-.145.083h-.002l-3.43 1.947-5.215-3.704v.542l5.215 3.73 3.788-2.233.616-.363.571-.334 1.935-2.367.009-.006v-.005l1-1.223.001-.001v-.001l2.253-2.754 3.013-2.135Zm-6.627 5.48-4.865-3.08-1.038.579 5.025 3.059Zm-1.085 1.26-5.005-3.168-1.017.568 5.165 3.145Zm-1.075 1.285-.106-.068-5.012-3.173-1.081.605 5.285 3.217Zm-1.12 1.347-5.259-3.312-3.124 1.543 5.08 3.589Z"/></svg>

<?xml version="1.0" encoding="UTF-8"?>
<svg width="24px" fill="#44739e" height="24px" viewBox="0 0 24 24" version="1.1" xmlns="http://www.w3.org/2000/svg" xmlns:xlink="http://www.w3.org/1999/xlink">
            <path d="M 6.261,7.198 7.248,6.626 4.292,5.34 4.174,8.407 5.246,7.786 l 2.307,2.969 -5.55,3.736 0.872,1.032 6.596,-4.462 z M 14.22,4.014 12.2,3 7.384,5.992 9.432,7.227 Z M 10.53,8.407 15.413,5.129 14.401,4.622 9.591,7.867 Z M 16.649,12.596 21.872,9 21.996,9.064 15.712,5.781 10.727,9.095 Z M 7.408,14.84 6.888,14.521 M 21.997,9.064 16.641,12.768 10.502,9.127 10.503,9.11 10.471,9.096 10.846,8.853 15.549,5.696 15.515,5.678 15.536,5.191 10.522,8.574 9.406,7.924 V 7.91 L 9.35,7.876 9.464,7.793 14.32,4.534 14.341,4.074 9.425,7.391 7.257,6.046 7.361,6.69 7.358,6.689 7.361,6.693 7.363,6.706 7.387,6.72 8.437,7.862 8.44,7.876 8.463,7.89 l 1.062,1.154 0.004,0.015 0.023,0.014 1.455,1.582 -0.394,0.22 4.925,2.998 0.922,-0.587 -0.023,-0.014 -4.922,-2.873 0.092,-0.061 0.01,-0.007 4.96,2.848 0.132,0.071 -0.14,0.093 -0.006,0.004 -1.01,0.689 -5.058,-3.096 v 0 0 l 0.036,0.396 4.993,3.108 0.135,0.079 -0.149,0.108 -0.006,-0.004 -0.995,0.64 -5.159,-3.157 0.041,0.452 5.051,3.144 0.135,0.079 -0.025,0.018 0.001,0.004 -0.052,0.033 -0.073,0.053 -0.005,-0.003 -0.977,0.628 -5.303,-3.246 0.468,0.287 v 0 l -0.468,-0.287 0.044,0.491 5.063,3.151 0.135,0.079 h -10e-4 l 0.106,0.065 0.002,0.028 -1.177,0.757 -4.907,-3.003 v 0 l -0.52,-0.319 0.046,0.516 5.331,3.3 10e-4,0.001 v 0 l 0.093,0.057 v 0.003 l 0.008,0.005 -0.145,0.083 H 12.22 L 8.791,20.432 3.578,16.73 v 0.541 L 8.791,21 l 3.787,-2.232 0.616,-0.363 v 0 0 l 0.57,-0.334 1.935,-2.366 0.009,-0.006 v -0.005 l 1,-1.223 0.001,-10e-4 v -0.001 l 2.252,-2.753 3.012,-2.134 0.024,-0.518 z m -6.625,5.478 -4.864,-3.079 -1.037,0.579 5.023,3.058 z M 9.35,12.109 v 10e-4 0 z m 4.937,3.693 -5.003,-3.167 -1.017,0.568 5.164,3.144 z m -1.074,1.284 -0.106,-0.068 -5.011,-3.172 -1.081,0.605 5.284,3.216 z m -1.12,1.347 -5.257,-3.311 -3.124,1.543 5.079,3.588 z"/>

</svg>
